X:1
T:Long Beach, 12.10.12.10
T:Long Beach, 12.10.12.10
T:Daniel Brink Towner, 1912
T:Public Domain Courtesy of the Cyber Hymnal™
C:Daniel Brink Towner, 1912
Z:Public Domain
Z:Courtesy of the Cyber Hymnal™
%%score ( 1 2 ) ( 3 4 )
L:1/8
Q:1/4=108
M:4/4
K:F
V:1 treble 
V:2 treble 
V:3 bass 
V:4 bass 
V:1
 [FA]4 [CG]2 [CF]2 | [CF]3 [CE] [CE]4 | [GB]4 [FA]2 [CG]2 | [CG]3 [CF] [CF]4 | [Fc]4 [EB]2 [FA]2 | %5
 [Fd]3 [Fd] (d2 c2) | [F=B]4 [FA]2 [FG]2 | [Ec]8 | [Fc]4 [FA]2 [CF]2 | [CG]3 [CE] C4 | %10
 [GB]4 [FA]2 [EG]2 | [FB]3 [FA] [FA]4 | [FA]4 [FB]2 [Fc]2 | [Fd]3 [Fd] [Fd]4 | [FA]4 [EA]3 [EG] | %15
 F8 |] %16
V:2
 x8 | x8 | x8 | x8 | x8 | x4 F4 | x8 | x8 | x8 | x4 C4 | x8 | x8 | x8 | x8 | x8 | F8 |] %16
V:3
 [F,C]4 [F,B,]2 [F,A,]2 | [C,A,]3 [C,G,] [C,G,]4 | [C,C]4 [C,C]2 [C,B,]2 | [F,B,]3 [F,A,] [F,A,]4 | %4
 [F,A,]4 [G,C]2 [A,C]2 | B,3 B, B,2 [A,C]2 | [G,D]4 [G,=B,]2 G,2 | [C,G,]8 | %8
 [F,A,]4 [F,C]2 [F,A,]2 | [C,B,]3 [C,G,] [C,E,]4 | (E,2 G,2) [C,C]2 [C,C]2 | [F,D]3 [F,C] [F,C]4 | %12
 C4 [D,B,]2 [C,A,]2 | [B,,B,]3 [B,,B,] [B,,B,]4 | (F,2 A,2) [C,C]3 [C,B,] | [F,A,]8 |] %16
V:4
 x8 | x8 | x8 | x8 | x8 | B,3 B, B,2 x2 | x6 G,2 | x8 | x8 | x8 | C,4 x4 | x8 | (F,2 _E,2) x4 | %13
 x8 | C,4 x4 | x8 |] %16

